X: 4
T: The Dawning Of The Day/Fainne Geal an Lae
M: 4/4
L: 1/8
N: as per Liam O’Flynn recording The Poet & The Piper
K: Gmaj
|: GA |B2 B2 B2 AB | d3e fedB | AGAB GAB2 | B6 GA |
B2 B2 B2 AB | d3e fedB | AGAB GA G2|G6 GA |
B2 B2 B2 AB | d3e fedB | AGAB GAB2 | B6 GA |
B2 B2 B2 AB | d3e fedB | AGAB GA G2 |G6 BA |
Bdef g2fg |eged BABd |e2 e2 f2 d2|e3f g3e |
B2 B2 B2 AB | d3e fedB | AGAB GAG2 |G6 BA |
Bdef g2fg |eged BABd |e2 e2 f2 d2|e3f g3e|
B2 B2 B2 AB | d3e fedB | AGAB GAG2 | G6 :|
